X:9
T:Andrew Carr
R:Slip Jig
B:The Athole Collection
M:9/8
L:1/8
K:D
F2(A A)FA AFD|G2B Bcd c2A|F2A AFA Bcd|A,2 D DEF E2D:|
d2A ABA AGF|E2e efg f2e|d2A AFA Bcd|A,2D DEF E2D|
d2A ABA AGF|E2e efg f2e|d>cB AFA Bcd|A,2D DEF E2D||

